!! 00000] TT[WS
!!!OTL: Pa puoyio
!!!ARE: Asia, China,ÿShanxi
!! Ethnic Group: Han
!! WI, 221 (2)
!!!SCT: J0264
!!!YEM: Copyright 1995, estate of Helmut Schaffrath.
**kern
*ICvox
*Ivox
*M2/4
*k[f#]
*G:
{8.ee
16gg
8ee
8a
=1
8gg
8ee
8dd
8b
=2
8ee
8dd
8gg
8b
=3
8a
8g
4e}
=4
{8b
8a
8b
8dd
=5
8a
8e
4g
=6
8.ee
16gg
8ee
8b
=7
2dd}
==
!!!AGN: Xiaodiao. Qingge
!!!ONB: ESAC (Essen Associative Code) Database: CHINA
!!!AMT: simple duple
!!!AIN: vox
!!!EED: Helmut Schaffrath
!!!EEV: 1.0
*-
